X:1
T: The Humours of Kilkenny
C:
R:Jig
Q:180
K:A
M:6/8
L:1/16
|:d2|c2A2A2 A4c2|e2f2e2 e4d2|c2A2A2 A2c2e2|f6a6|
A2c2e2 a2g2f2|f2e2d2 c4B2|c2A2F2 F2G2F2|d6c4:|
|:d2|c2A2F2 F6|A2F2E2 E4d2|c2A2F2 F6|d6 d2f2d2|
c2A2F2 F6|A2F2E2 E4d2|c2B2A2 B2A2F2|A6A4:|
